!!!!SEGMENT: pl-kk--kk-i-475--002_studzinski-karol--msza-3cia-gloria.krn
!!!cenid: 18xx:1378
!!!COM: Studziński, Karol
!!!COM-rismID: pe30040593
!!!CDT: 1828/01/24-1883/03/16
!!!CNT: Polish
!!!OPR: Msza 3cia
!!!OTL: Gloria
!!!OMV: 002
!!!PDT:
!!!AGN: Sacred; Mass
!!!SMS-siglum: PL-Kk
!!!SMS-shelfmark: Kk.I.475
!!!SMS-shelfwork: 001-002 M
!!!SMS-variant:
!!!SMS-altvar:
!!!NIFC-rismSourceID: 1001140246
!!!NIFC-rismChildID: 1001140246
!!!NIFC-islandoraID: pl-kk:14096
!!!URL-pdf-islandora: https://repozytorium.nifc.pl/islandora/object/pl-kk%3A14096/datastream/PDF/view
!!!URL-scan: https://polish.musicsources.pl/pl/lokalizacje/galeria/rekopisy/6082 @EN{Scan on Polish Music Sources Website} @PL{Skany w portalu Dziedzictwo Muzyki Polskiej w otwartym dostępie}
!!!ONB-nifc: UWAGA: części Mszy: 1. Kyrie, 2. Gloria, 3. Graduale, 4. Credo, 5. Sanctus, 6. O salutaris, 7. Agnus Dei
!!!AIN: 1 alto 1 empty 1 soprn 1 tenor
!!!key:
**kern	**kern	**text	**kern	**text	**kern	**text	**dynam
*part4	*part3	*part3	*part2	*part2	*part1	*part1	*part1
*staff4	*staff3	*staff3	*staff2	*staff2	*staff1	*staff1	*
*Iempty	*Itenor	*	*Ialto	*	*Isoprn	*	*
*I"Bas.	*I"Tenor.	*	*I"Alt.	*	*I"Sopran.	*	*
*I'B	*I'T	*	*I'A	*	*I'S	*	*
*clefF4	*clefG2	*	*clefG2	*	*clefG2	*	*
*	*ITrd7c12	*	*	*	*	*	*
*k[b-]	*k[b-]	*	*k[b-]	*	*k[b-]	*	*
*F:	*F:	*	*F:	*	*F:	*	*
*M2/2	*M2/2	*	*M2/2	*	*M2/2	*	*
*met(c|)	*met(c|)	*	*met(c|)	*	*met(c|)	*	*
=1	=1	=1	=1	=1	=1	=1	=1
*	*	*	*	*	*	*	*below
!LO:TX:t=P:problem=źródło wybrakowane, brak partii basu	!LO:TX:a:i:t=Allegro moderato	!	!LO:TX:a:i:t=Allegro moderato	!	!LO:TX:a:i:t=Allegro Moderato	!	!
!	!LO:TX:a:i:t=Gloria	!	!LO:TX:a:i:t=Gloria	!	!LO:TX:a:i:t=Gloria	!	!LO:DY:rj
1ryy	4.F/	Glo-	4.f/	Glo-	4.f/	Glo-	ff
.	8F/	-ri-	8f/	-ri-	8f/	-ri-	.
.	2F/	-a	2f/	-a	2f/	-a	.
=2	=2	=2	=2	=2	=2	=2	=2
1ryy	4F/	in	4f/	in	4f/	in	.
.	4A/	ex-	4a/	ex-	4a/	ex-	.
.	4G/	-cel-	4g/	-cel-	4g/	-cel-	.
.	4F/	-sis	4f/	-sis	4f/	-sis	.
=3	=3	=3	=3	=3	=3	=3	=3
1ryy	1c	De-	2e/	De-	1cc	De-	.
.	.	.	2a/	.	.	.	.
=4	=4	=4	=4	=4	=4	=4	=4
1ryy	2.e\	-o	2.g/	-o	2.cc\	-o	.
.	4r	.	4r	.	4r	.	.
!	!LO:LB:g=original	!	!	!	!LO:LB:g=original	!	!
=5	=5	=5	=5	=5	=5	=5	=5
1ryy	2B-\	et	2b-\	et	2b-\	et	.
.	2B-\	in	2b-\	in	2b-\	in	.
!	!	!	!LO:LB:g=original	!	!	!	!
=6	=6	=6	=6	=6	=6	=6	=6
1ryy	4B-\	ter-	4b-\	ter-	4b-\	ter-	.
.	4d\	-ra	4dd\	-ra	4dd\	-ra	.
.	4c\	pax	4cc\	pax	4cc\	pax	.
.	4B-\	ho-	4b-\	ho-	4b-\	ho-	.
=7	=7	=7	=7	=7	=7	=7	=7
1ryy	2c\	-mi-	2cc 2f\	-mi-	2ff\	-mi-	.
.	2c\	-ni-	2b-\	-ni-	2ee\	-ni-	.
=8	=8	=8	=8	=8	=8	=8	=8
1ryy	2c\	-bus	2a/	-bus	2ff\	-bus	.
.	4F/	bo-	4f/	bo-	4f/	bo-	.
.	4F/	-nae	4f/	-nae	4f/	-nae	.
!	!LO:LB:g=original	!	!	!	!LO:LB:g=original	!	!
=9	=9	=9	=9	=9	=9	=9	=9
1ryy	2F/	vo-	2d/	vo-	2f/	vo-	.
.	2F/	-lun-	2d/	-lun-	2f/	-lun-	.
=10	=10	=10	=10	=10	=10	=10	=10
1ryy	2F/	-ta-	2c/	-ta-	2f/	-ta-	.
.	2c\	-tis	2f/	-tis	2f/	-tis	.
!	!	!	!LO:LB:g=original	!	!	!	!
=11	=11	=11	=11	=11	=11	=11	=11
1ryy	4d\	bo-	4f/	bo-	4b-\	bo-	.
.	4d\	-nae	4f/	-nae	4b-\	-nae	.
.	4c\	vo-	4e/	vo-	4b-\	vo-	.
.	4c\	-lun-	8f/L	-lun-	4b-\	-lun-	.
.	.	.	8g/J	.	.	.	.
=12	=12	=12	=12	=12	=12	=12	=12
1ryy	(4.c\	-ta-	(>4f/	-ta-	4a/	-ta-	.
.	.	.	4e/)	.	4g/	-tis	.
.	8B-\)	.	.	.	.	.	.
.	2A/	-tis	2f/	-tis	2f/	.	.
!	!LO:LB:g=original	!	!	!	!LO:LB:g=original	!	!
=13	=13	=13	=13	=13	=13	=13	=13
1ryy	4.B-\	lau-	4.d/	lau-	2dd\	lau-	.
.	8c\	.	8e/	.	.	.	.
.	4d\	-da-	4f/	-da-	4dd\	-da-	.
.	4e\	-mus	4g/	-mus	4dd\	-mus	.
=14	=14	=14	=14	=14	=14	=14	=14
1ryy	2f\	Te	2a/	Te	2cc\	Te	.
.	.	.	.	.	.	.	f
.	4f\	be-	4a/	be-	4cc\	be-	.
.	4e-X\	-ne-	4a/	-ne-	4cc\	-ne-	.
!	!	!	!LO:LB:g=original	!	!	!	!
=15	=15	=15	=15	=15	=15	=15	=15
1ryy	2d\	-di-	4g/	-di-	4cc\	-di-	.
.	.	.	4d/	-[[ci]]-	8b-\L	.	.
.	.	.	.	.	8a\J	.	.
.	4d\	-ci-	4g/	-ci-	4g/	-ci-	.
.	4d\	-mus	8f/L	-mus	8f/L	-mus	.
.	.	.	8e/J	.	8g/J	.	.
=16	=16	=16	=16	=16	=16	=16	=16
1ryy	(4d\	Te	(4f/	Te	2a/	Te	.
.	4c#X\)	.	4e/)	.	.	.	ff
.	4c#\	a-	4e/	a-	4a/	a-	.
.	4c#\	-do-	4e/	-do-	4a/	-do-	.
!	!LO:LB:g=original	!	!	!	!LO:LB:g=original	!	!
=17	=17	=17	=17	=17	=17	=17	=17
1ryy	2.cn\	-ra-	2.e/	-ra-	2b-/	-ra-	.
.	.	.	.	.	4a/	.	.
.	4c\	-mus	4e/	-mus	4g/	-mus	.
=18	=18	=18	=18	=18	=18	=18	=18
1ryy	4c\	Te	4e/	Te	4cc\	Te	.
.	4c\	glo-	4e/	glo-	4cc\	glo-	.
.	4c\	-ri-	4f/	-ri-	4f/	-ri-	.
.	4A/	-fi-	4d/	-fi-	4f/	-fi-	.
!	!	!	!LO:LB:g=original	!	!	!	!
=19	=19	=19	=19	=19	=19	=19	=19
*	*^	*	*	*	*	*	*
1ryy	2.B-/	2.G\	-ca-	2.d/	-ca-	2b-\	-ca-	.
.	.	.	.	.	.	4a/	.	.
.	4B-/	4B-\	-mus	4e/	-mus	4g/	-mus	.
*	*v	*v	*	*	*	*	*	*
=20	=20	=20	=20	=20	=20	=20	=20
1ryy	2.A/	Te	2.f/	Te	2.f/	Te	.
.	4r	.	4r	.	4r	.	.
!	!LO:LB:g=original	!	!	!	!LO:LB:g=original	!	!
=21	=21	=21	=21	=21	=21	=21	=21
1ryy	2A/	Gra-	2f/	Gra-	2f/	Gra-	.
.	4G/	-ti-	4e/	-ti-	4e/	-ti-	.
.	4F/	-as	4d/	-as	4d/	-as	.
=22	=22	=22	=22	=22	=22	=22	=22
1ryy	2F/	a-	2d/	a-	2a/	a-	.
.	4G/	-gi-	4e/	-gi-	4a/	-gi-	.
.	4F/	-mus	4d/	-mus	4a/	-mus	.
!	!	!	!LO:LB:g=original	!	!	!	!
=23	=23	=23	=23	=23	=23	=23	=23
1ryy	2E/	Ti-	2c#X/	Ti-	1a	Ti-	.
.	2G/	.	2e/	.	.	.	.
=24	=24	=24	=24	=24	=24	=24	=24
1ryy	2.F/	-bi	2.d/	-bi	2.a/	-bi	.
.	4r	.	4r	.	4r	.	.
!	!	!	!	!	!LO:LB:g=original	!	!
=25	=25	=25	=25	=25	=25	=25	=25
1ryy	2G/	pro-	2.d/	pro-	2b-\	Pro-	.
.	4B-/	.	.	.	4dd\	.	.
.	4G/	-pter	4d/	-pter	4b-\	-pter	.
!	!LO:LB:g=original	!	!	!	!	!	!
=26	=26	=26	=26	=26	=26	=26	=26
1ryy	(2A/	ma-	2d/	ma-	2a/	ma-	.
.	4d\)	.	2d/	-gnam	2a/	-gnam	.
.	4A/	-gnam	.	.	.	.	.
=27	=27	=27	=27	=27	=27	=27	=27
1ryy	2A/	glo-	2c#X/	glo-	2g/	glo-	.
.	4A/	-ri-	4d/	-ri-	4f/	-ri-	.
.	4G/	-am	4d/	-am	4g/	-am	.
!	!	!	!LO:LB:g=original	!	!	!	!
=28	=28	=28	=28	=28	=28	=28	=28
1ryy	2A/	Tu-	2d/	Tu-	2f/	Tu-	.
.	2A/	-am	2c#X/	-am	2e/	-am	.
!	!	!	!	!	!LO:LB:g=original	!	!
=29	=29	=29	=29	=29	=29	=29	=29
1ryy	2A/	Do-	2cn/	Do-	2a/	Do-	.
.	4Bn\	-mi-	4d/	-mi-	4a/	-mi-	.
.	4c\	-ne	4e/	-ne	4a/	-ne	.
!	!LO:LB:g=original	!	!	!	!	!	!
=30	=30L	=30	=30	=30	=30	=30	=30
1ryy	4d\	De-	4f/	De-	4a/	De-	.
.	4d\	-us	4f/	-us	4dd\	-us	.
.	4A/	A-	4f/	A-	4cc\	A-	.
.	4Bn/	-gnus	4f/	-gnus	4bn\	-gnus	.
=31	=31	=31	=31	=31	=31	=31	=31
1ryy	(2.c\	De-	(>4f#X/	De-	2.a/	De-	.
.	.	.	4fn/	.	.	.	.
.	.	.	2e/)	.	.	.	.
.	4d\)	.	.	.	4g#X/	.	.
=32	=32	=32	=32	=32	=32	=32	=32
1ryy	2c\	-i	2e/	-i	2a/	-i	.
.	2r	.	2r	.	2r	.	.
!	!	!	!LO:LB:g=original	!	!LO:LB:g=original	!	!
=33	=33	=33	=33	=33	=33	=33	=33
1ryy	2A/	Fi-	2e/	Fi-	2ee\	Fil-	.
.	4A/	-li-	4e/	-li-	4dd\	-li-	.
.	4A/	-us	4e/	-us	4cc\	-us	.
!	!LO:LB:g=original	!	!	!	!	!	!
=34	=34	=34	=34	=34	=34	=34	=34
1ryy	2A/	Fi-	2f/	Fi-	(4cc\	Fi-	.
.	.	.	.	.	4bn\)	.	.
.	4Bn\	-li-	4f/	-li-	4dd\	-li-	.
.	4d\	-us	4f/	-us	4b\	-us	.
=35	=35	=35	=35	=35	=35	=35	=35
1ryy	2c\	Pa-	2e/	Pa-	4a/	Pa-	.
.	.	.	.	.	2cc\	.	.
.	2d\	.	2g#X/	.	.	.	.
.	.	.	.	.	4bn\	.	.
=36	=36	=36	=36	=36	=36	=36	=36
1ryy	2.c\	-tris	2.a/	-tris	2.a/	-tris	.
.	.	.	.	.	.	.	f
.	4c\	qui	4e/	qui	4a/	qui	.
!	!	!	!LO:LB:g=original	!	!LO:LB:g=original	!	!
=37	=37	=37	=37	=37	=37	=37	=37
1ryy	2c\	tol-	2e/	tol-	2b-X\	tol-	.
.	2c\	-lis	2e/	-lis	2b-\	-lis	.
!	!LO:LB:g=original	!	!	!	!	!	!
=38	=38	=38	=38	=38	=38	=38	=38
1ryy	4r	.	4r	.	4r	.	p
.	4c\	pec-	4g/	pec-	4b-/	pec-	.
.	4c\	-ca-	4f/	-ca-	4a/	-ca-	.
.	4c\	-ta	4f/	-ta	4a/	-ta	.
=39	=39	=39	=39	=39	=39	=39	=39
1ryy	2c\	mun-	2f/	mun-	2a/	mun-	.
.	2c\	-di	2e/	-di	2g/	-di	.
=40	=40	=40	=40	=40	=40	=40	=40
!	!	!	!	!	!	!	!LO:DY:rj
1ryy	4.G/	sus-	4.e/	sus-	4.cc\	sus-	f
.	8G/	-ci-	8e/	-ci-	8cc\	-ci-	.
.	2G/	-pe	2e/	-pe	2cc\	-pe	.
!	!	!	!LO:LB:g=original	!	!LO:LB:g=original	!	!
=41	=41	=41	=41	=41	=41	=41	=41
1ryy	4c\	de-	4g/	de-	4cc\	de-	.
.	4c\	-pre-	4g/	-pre-	4b-\	-pre-	.
.	4c\	-ca-	4f/	-ca-	4a/	-ca-	.
.	4c\	-ti-	4f/	-ti-	4a/	-ti-	.
!	!LO:LB:g=original	!	!	!	!	!	!
=42	=42	=42	=42	=42	=42	=42	=42
1ryy	4c\	-o-	4e/	-o-	4g/	-o-	.
.	4c\	-nem	4e/	-nem	4g/	-nem	.
.	(4c\	no-	2f/	no-	2a-X/	no-	.
.	4Bn\)	.	.	.	.	.	.
=43	=43	=43	=43	=43	=43	=43	=43
!	!	!	!LO:TX:a:i:t=rall.	!	!	!	!
1ryy	2c\	-stram	2e/	-stram	2g/	-stram	.
.	4G/	mi-	4c/	mi-	4e/	mi-	.
.	4G/	-se-	4c/	-se-	4e/	-se-	.
=44	=44	=44	=44	=44	=44	=44	=44
*	*	*	*^	*	*	*	*
1ryy	4A-X/	-re-	4c/	2ryy	-re-	4f/	-re-	.
.	4A-/	-re	4c/	.	-re	4f/	-re	.
.	2A-/	no-	2d/	2Bn\	no-	2f/	no-	.
*	*	*	*v	*v	*	*	*	*
!	!	!	!LO:LB:g=original	!	!	!	!
=45	=45	=45	=45	=45	=45	=45	=45
1ryy	1G;	-bis	1c;	-bis	1e;	-bis	.
!	!LO:LB:g=original	!	!	!	!LO:LB:g=original	!	!
=46||	=46||	=46||	=46||	=46||	=46||	=46||	=46||
1ryy	4.F/	Quo-	4.f/	Quo-	4.f/	Quo-	.
.	8F/	-ni-	8f/	-ni-	8f/	-ni-	.
.	[>2F/	-am	[2f/	-am	[2f/	-am	.
=47	=47	=47	=47	=47	=47	=47	=47
1ryy	4F/]	.	4f/]	.	4f/]	.	.
.	4A/	tu	4a/	Tu	4a/	Tu	.
.	4G/	so-	4g/	so-	4g/	so-	.
.	4F/	-lus	4f/	-lus	4f/	-lus	.
=48	=48	=48	=48	=48	=48	=48	=48
1ryy	1c	San-	(2e/	San-	1cc	San-	.
.	.	.	2a/)	.	.	.	.
=49	=49	=49	=49	=49	=49	=49	=49
1ryy	2.e\	-ctus.	2.g/	-ctus	2.cc\	-ctus	.
.	4r	.	4r	.	4r	.	.
!	!LO:PB:g=original	!	!LO:LB:g=original	!	!LO:PB:g=original	!	!
=50	=50	=50	=50	=50	=50	=50	=50
1ryy	4.B-\	Quo-	4.b-\	Quo-	4.b-\	Quo-	.
.	8B-\	-ni-	8b-\	-ni-	8b-\	-ni-	.
.	4B-\	-am	4b-\	-am	4b-\	-am	.
.	4B-\	Tu	4b-\	Tu	4b-\	Tu	.
=51	=51	=51	=51	=51	=51	=51	=51
1ryy	(4B-\	so-	(4b-\	so-	(4b-\	so-	.
.	4d\	.	4dd\	.	4dd\	.	.
.	4c\)	.	4cc\)	.	4cc\)	.	.
.	4B-\	-lus	4b-\	-lus	4b-\	-lus	.
=52	=52	=52	=52	=52	=52	=52	=52
1ryy	2c\	Do-	2cc\	Do-	2.ff\	Do-	.
.	2c\	-mi-	2b-/	-mi-	.	.	.
.	.	.	.	.	4ee\	-mi-	.
=53	=53	=53	=53	=53	=53	=53	=53
!	!	!	!LO:N:vis=2.	!	!	!	!
1ryy	2.c\	-nus	2a/	-nus	2.ff\	-nus	.
.	.	.	4r	.	.	.	.
!	!	!	!LO:TX:a:t=P:problem=brak początku łuku	!	!	!	!
.	4F/	Tu	(>4f/	Tu	4f/	Tu	.
!	!LO:LB:g=original	!	!LO:PB:g=original	!	!LO:LB:g=original	!	!
=54	=54	=54	=54	=54	=54	=54	=54
1ryy	1F	so-	1d)	so-	1f	so-	.
=55	=55	=55	=55	=55	=55	=55	=55
1ryy	1F	-lus	1f	-lus	1f	-lus	.
=56	=56	=56	=56	=56	=56	=56	=56
1ryy	2d\	Al-	2f/	al-	1b-	Al-	.
.	2c\	.	4e/	.	.	.	.
.	.	.	8f/L	.	.	.	.
.	.	.	8g/J	.	.	.	.
=57	=57	=57	=57	=57	=57	=57	=57
1ryy	4c\	-tis-	4f/	-tis-	4a/	-tis-	.
.	4B-\	-si-	4e/	-si-	4g/	-si-	.
.	2A/	-mus	2f/	-mus	2f/	-mus	.
=58	=58	=58	=58	=58	=58	=58	=58
1ryy	(4B-\	Je-	(4d/	Je-	2.dd\	Je-	.
.	4c\	.	4e/	.	.	.	.
.	4d\)	.	4f/)	.	.	.	.
.	4e\	-su	4g/	-su	4dd\	-su	.
!	!LO:LB:g=original	!	!LO:LB:g=original	!	!LO:LB:g=original	!	!
=59	=59	=59	=59	=59	=59	=59	=59
1ryy	2e\	Chri-	2a/	Chri-	2cc#X\	Chri-	.
.	2e\	-ste	2a/	-ste	2cc#\	-ste	.
=60	=60	=60	=60	=60	=60	=60	=60
1ryy	2d\	Cum	2a/	Cum	2dd\	Cum	.
.	4d\	san-	4g/	san-	4b-\	san-	.
.	4c\	-cto	4g/	-cto	4ccn\	-cto	.
=61	=61	=61	=61	=61	=61	=61	=61
1ryy	4.c\	Spi-	4.f/	Spi-	4.a/	Spi-	.
.	8c\	-ri-	8f/	-ri-	8a/	-ri-	.
.	4B-\	-tu	4f/	-tu	4b-/	-tu	.
.	4B-\	in	4f/	in	4a/	in	.
=62	=62	=62	=62	=62	=62	=62	=62
1ryy	2B-\	glo-	2e/	glo-	2g/	glo-	.
.	4A/	-ri-	4e/	-ri	4a/	-ri-	.
.	4A/	-a	4e/	a	4g/	-a	.
!	!LO:LB:g=original	!	!LO:LB:g=original	!	!LO:LB:g=original	!	!
=63	=63	=63	=63	=63	=63	=63	=63
1ryy	2A/	De-	2d/	De-	2f/	De-	.
.	2A/	-i	2d/	-i	2f#X/	-i	.
=64	=64	=64	=64	=64	=64	=64	=64
1ryy	2d\	Pa-	2d/	Pa-	2g/	Pa-	.
.	2d\	-tris	2f#X/	-tris	2a/	-tris	.
=65	=65	=65	=65	=65	=65	=65	=65
1ryy	2.d\	a-	(>2.g/	a-	4b-\	a-	.
.	.	.	.	.	4dd\	.	.
.	.	.	.	.	4b-\	.	.
.	4B-\	-men	4d/)	-men	4g/	-men	.
=66	=66	=66	=66	=66	=66	=66	=66
1ryy	2A/	a-	(>2c/	a-	4f/	a-	.
.	.	.	.	.	2a/	.	.
.	2B-/	.	2e/)	.	.	.	.
.	.	.	.	.	4g/	-men	.
!	!	!	!	!	!LO:LB:g=original	!	!
=67	=67	=67	=67	=67	=67	=67	=67
1ryy	4A/	-men	4f/	-men	4f/	men	.
.	4r	.	4r	.	4r	.	.
.	2r	.	2r	.	2r	.	.
!	!LO:LB:g=original	!	!LO:LB:g=original	!	!	!	!
=68	=68	=68	=68	=68	=68	=68	=68
!	!LO:TX:a:t=1	!	!LO:TX:a:t=3	!	!LO:TX:a:t=5	!	!
1ryy	1r	.	0r	.	00r	.	.
=69	=69	=69	=69	=69	=69	=69	=69
1ryy	4r	.	.	.	.	.	.
.	4c\	cum	.	.	.	.	.
.	4c\	san-	.	.	.	.	.
.	4c\	-cto	.	.	.	.	.
=70	=70	=70	=70	=70	=70	=70	=70
1ryy	4d\	Spi-	1r	.	.	.	.
.	4f\	-ri-	.	.	.	.	.
.	4e\	-tu	.	.	.	.	.
.	4d\	in	.	.	.	.	.
=71	=71	=71	=71	=71	=71	=71	=71
1ryy	4A/	glo-	4r	.	.	.	.
.	8A/	-ri-	4f/	Cum	.	.	.
.	8B-/	-a	.	.	.	.	.
.	4c\	De-	4f/	stan-	.	.	.
.	4d\	-i	4f/	-cto	.	.	.
!	!LO:LB:g=original	!	!	!	!	!	!
=72	=72	=72	=72	=72	=72	=72	=72
1ryy	4c\	Pa-	4f/	Spi-	1r	.	.
.	4c\	-tris	4a/	-ri-	.	.	.
.	(8Bn\L	a-	4g/	-tu	.	.	.
.	8G\	.	.	.	.	.	.
.	8A\	.	4f/	in	.	.	.
.	8B\J)	.	.	.	.	.	.
=73	=73	=73	=73	=73	=73	=73	=73
1ryy	4c\	-men	4e/	glo-	4r	.	.
.	(8c\L	in	8e/	-ri-	4cc\	Cum	.
.	8d\J)	.	8f/	-a	.	.	.
.	4e\	glo-	4g/	De-	4cc\	san-	.
.	8d\	-ri-	4f/	-i	4cc\	-cto	.
.	8d\	-a	.	.	.	.	.
!	!	!	!LO:LB:g=original	!	!	!	!
=74	=74	=74	=74	=74	=74	=74	=74
1ryy	4c\	De-	4e/	Pa-	4cc\	Spi-	.
.	4G/	-i	4g/	-tris	4ee\	-ri-	.
.	4c\	Pa-	(4f/	a-	4dd\	-tu	.
.	4c\	-tris	4e/)	.	4cc\	in	.
!	!LO:LB:g=original	!	!	!	!	!	!
=75	=75	=75	=75	=75	=75	=75	=75
1ryy	4c\	a-	4f/	-men	(4.ff\	glo-	.
.	(4f\	.	(4a/	a-	.	.	.
.	.	.	.	.	16ee\LL	.	.
.	.	.	.	.	16dd\JJ)	.	.
.	8e\L	.	8g/L	.	4cc#X\	-ri-	.
.	8g\	.	8b-/	.	.	.	.
.	8f\	.	8a/	.	4cc#\	-a	.
.	(8e\J)	.	(>8g/J)	.	.	.	.
!	!	!	!	!	!LO:LB:g=original	!	!
=76	=76	=76	=76	=76	=76	=76	=76
1ryy	2d\	.	(2f/)	.	(4.dd\	De-	.
.	.	.	.	.	16cc\LL	.	.
.	.	.	.	.	16b-\JJ)	.	.
.	8c\L	.	8e-X/L	.	2a/	-i	.
.	8e-X\	.	8g/	.	.	.	.
.	8d\	.	8f/	.	.	.	.
.	8c\J)	.	8e-/J)	.	.	.	.
!	!	!	!LO:LB:g=original	!	!	!	!
=77	=77	=77	=77	=77	=77	=77	=77
1ryy	2B-/	-men	2d/	-men	(4.b-/	Pa-	.
.	.	.	.	.	16a/LL	.	.
.	.	.	.	.	16g/JJ	.	.
.	(8A/L	a-	8c/L	a-	2f#X/)	.	.
.	8c/	.	8e-X/	.	.	.	.
.	8B-/	.	8d/	.	.	.	.
.	8A/J)	.	8c/J	.	.	.	.
!	!LO:LB:g=original	!	!	!	!	!	!
=78	=78	=78	=78	=78	=78	=78	=78
1ryy	4G/	-men	4B-/	-men	4g/	-tris	.
.	(2d\	a-	(>2d/	a-	4a/	a-	.
.	.	.	.	.	4b-/	.	.
.	4c\	.	4f#X/	.	4dd\	.	.
=79	=79	=79	=79	=79	=79	=79	=79
1ryy	4B-\	.	2.g/	.	(4gg\	.	.
.	4d\	.	.	.	4ff\	.	.
.	4e\)	.	.	.	4ee\)	-men	.
.	4f\	-men	4a-X/)	-men	4dd\	a-	.
!	!	!	!	!	!LO:LB:g=original	!	!
=80	=80	=80	=80	=80	=80	=80	=80
1ryy	(<(2.f\	a-	(>2an/	a-	(4cc\	.	.
.	.	.	.	.	8dd\L	.	.
.	.	.	.	.	8cc\J	.	.
.	.	.	4b-/)	.	4ff\)	.	.
.	8F/L)	.	4f/	-men	4b-\	-men	.
.	8G/J)	.	.	.	.	.	.
!	!	!	!LO:LB:g=original	!	!	!	!
=81	=81	=81	=81	=81	=81	=81	=81
1ryy	4A/	-men	2.f/	a-	(2a/	a-	.
.	(<8A/L	a-	.	.	.	.	.
.	8B-/J	.	.	.	.	.	.
.	4.c\	.	.	.	4g/	.	.
.	.	.	4e/	.	4cc\)	.	.
.	8B-\)	.	.	.	.	.	.
!	!LO:LB:g=original	!	!	!	!	!	!
=82	=82	=82	=82	=82	=82	=82	=82
1ryy	4A/	-men	4f/	-men	4f/	-men	.
.	4F/	cum	4f/	Cum	4f/	Cum	.
.	4F/	san-	4f/	san-	4f/	san-	.
.	4F/	-cto	4f/	-cto	4f/	-cto	.
=83	=83	=83	=83	=83	=83	=83	=83
1ryy	4F/	Spi-	4f/	Spi-	4f/	Spi-	.
.	4A/	-ri-	4a/	-ri-	4a/	-ri-	.
.	4G/	-tu	4g/	-tu	4g/	-tu	.
.	4F/	in	4f/	in	4f/	in	.
!	!	!	!	!	!LO:LB:g=original	!	!
=84	=84	=84	=84	=84	=84	=84	=84
1ryy	1B- 1F	glo-	1f 1d	glo-	1dd 1f	glo-	.
=85	=85	=85	=85	=85	=85	=85	=85
*	*^	*	*	*	*^	*	*
*	*	*	*	*	*	*	*^	*	*
1ryy	2B-/	2F\	.	2f/	-ri-	(2.dd/	2.dd\	2f\	-ri-	.
.	2B-/	2G\	-ri-	2g/	.	.	.	2g\	.	.
.	.	.	.	.	.	4cc\)	4ryy	.	.	.
*	*	*	*	*	*	*v	*v	*v	*	*
!	!	!	!	!LO:LB:g=original	!	!	!	!
=86	=86	=86	=86	=86	=86	=86	=86	=86
1ryy	2A/	2F\	-a	2f/	-a	2cc\	-a	.
.	4F/	2ryy	De-	4f/	De-	4f/	De-	.
.	4F/	.	-i	4f/	-i	4f/	-i	.
*	*v	*v	*	*	*	*	*	*
!	!LO:LB:g=original	!	!	!	!	!	!
=87	=87	=87	=87	=87	=87	=87	=87
1ryy	(>4F/	Pa-	(>4f/	Pa-	4f/	Pa-	.
.	4A/	.	4a/	.	4a/	.	.
.	4G/	.	4g/	.	4g/	.	.
.	4F/)	-tris	4f/)	-tris	4f/	-tris	.
=88	=88	=88	=88	=88	=88	=88	=88
1ryy	(1F	a-	(>1d	a-	1b-	a-	.
=89	=89	=89	=89	=89	=89	=89	=89
1ryy	(2.B-\)	.	1d-X)	.	2b-\	.	.
.	.	.	.	.	4f/	.	.
.	4d-X\)	.	.	.	4g/	.	.
=90	=90	=90	=90	=90	=90	=90	=90
*	*^	*	*	*	*	*	*
1ryy	1f;	1F;	-men	1f 1c	-men	1a 1f;	-men	.
*	*v	*v	*	*	*	*	*	*
==	==	==	==	==	==	==	==
*-	*-	*-	*-	*-	*-	*-	*-
!!!system-decoration: [(s1,s2,s3,s4)]
!!!RDF**kern: > = above
!!!RDF**kern: < =below
!!!ENC: Marta Lawrence
!!!END: 2021-01-15
!!!ENC: Andrzej Gręziak
!!!END: 2021-01-10
!!!YEC: Copyright 2022 Narodowy Instytut Fryderyka Chopina (https://polishscores.org)
!!!YEM: License CC-BY-4.0 (https://creativecommons.org/licenses/by/4.0)
